X:319
T:Untitled RH.319
R:march
S:Rev.R.Harrison’s MS,c1815,Cumbria
O:England
A:Temple Sowerby,Cumbria
Z:vmp.Simon Wilson. Review PJH, 2008.
M:2/4
L:1/8
Q:1/4=120
K:G
(B/c/)|dd/e/ db|g2 db|gg fg|a/g/f/e/ ” cr”dB/c/|\
dd/e/ db|g2 db|af a/g/f/e/|d3:|!
|:(f/g/)|(aa/b/) ac’|bd’ d’2|bg g2|fd d(f/g/)|\
aa/b/ ac’|bd’ d’2|bg f/g/a/f/|g3:|!
z|d’2 c’b|ag g2|dg ab|a/g/a/b/ aa|\
d’2 c’b|ag g2|dg ab|g/d/e/f/ g/a/b/c’/|!
d’2 c’b|ag g2|dg ab|a/g/a/b/ aa|\
d’2 c’b|ag g2|dg ab|a3|]

